svg/Pictogram/pictograms-prohibition.svg

<?xml version="1.0" encoding="UTF-8" standalone="no"?>
<!-- Created with Inkscape (http://www.inkscape.org/) --><svg height="141.73355" id="svg2902" inkscape:export-filename="/home/yves/Bureau/interdictions/prohibition-8.png" inkscape:export-xdpi="190.49831" inkscape:export-ydpi="190.49831" inkscape:output_extension="org.inkscape.output.svg.inkscape" inkscape:version="0.45+devel" sodipodi:docname="prohibition-8.svg" sodipodi:version="0.32" version="1.0" width="141.73355" xmlns="http://www.w3.org/2000/svg" xmlns:cc="http://creativecommons.org/ns#" xmlns:dc="http://purl.org/dc/elements/1.1/" xmlns:inkscape="http://www.inkscape.org/namespaces/inkscape" xmlns:rdf="http://www.w3.org/1999/02/22-rdf-syntax-ns#" xmlns:sodipodi="http://sodipodi.sourceforge.net/DTD/sodipodi-0.dtd" xmlns:svg="http://www.w3.org/2000/svg">
  <metadata>
    <rdf:RDF xmlns:cc="http://web.resource.org/cc/" xmlns:dc="http://purl.org/dc/elements/1.1/" xmlns:rdf="http://www.w3.org/1999/02/22-rdf-syntax-ns#">
      <cc:Work rdf:about="">
        <dc:title></dc:title>
        <dc:description></dc:description>
        <dc:subject>
          <rdf:Bag>
            <rdf:li>unsorted</rdf:li>
          </rdf:Bag>
        </dc:subject>
        <dc:publisher>
          <cc:Agent rdf:about="http://www.openclipart.org/">
            <dc:title>Source: Open Clip Art Library, Source: Open Clip Art Library, Source: Open Clip Art Library</dc:title>
          </cc:Agent>
        </dc:publisher>
        <dc:creator>
          <cc:Agent>
            <dc:title>yves guillou</dc:title>
          </cc:Agent>
        </dc:creator>
        <dc:rights>
          <cc:Agent>
            <dc:title>yves guillou</dc:title>
          </cc:Agent>
        </dc:rights>
        <dc:date></dc:date>
        <dc:format>image/svg+xml</dc:format>
        <dc:type rdf:resource="http://purl.org/dc/dcmitype/StillImage"/>
        <cc:license rdf:resource="http://en.wikipedia.org/wiki/Public_domain"/>
        <dc:language>French</dc:language>
      </cc:Work>
    </rdf:RDF>
  </metadata>
  <defs id="defs2904">
    <inkscape:perspective id="perspective2910" inkscape:persp3d-origin="300 : 400 : 1" inkscape:vp_x="-50 : 600 : 1" inkscape:vp_y="0 : 1000 : 0" inkscape:vp_z="700 : 600 : 1" sodipodi:type="inkscape:persp3d"/>
  </defs>
  <sodipodi:namedview bordercolor="#666666" borderopacity="1.0" id="base" inkscape:current-layer="layer1" inkscape:cx="76.868313" inkscape:cy="76.678778" inkscape:document-units="px" inkscape:pageopacity="0.0" inkscape:pageshadow="2" inkscape:window-height="694" inkscape:window-width="640" inkscape:window-x="378" inkscape:window-y="12" inkscape:zoom="2.8" pagecolor="#ffffff" showgrid="false"/>
  <g id="layer1" inkscape:groupmode="layer" inkscape:label="Calque 1" transform="translate(-286.27608,-458.63827)">
    <g id="g7" transform="translate(274.75659,447.11878)">
      <g id="g8">
        <path d="M 84.4626,153.222 C 123.584,152.075 154.369,119.431 153.222,80.3103 C 152.076,41.1892 119.431,10.404 80.3103,11.5505 C 41.1892,12.697 10.404,45.3415 11.5505,84.4626 C 12.6975,123.583 45.3415,154.369 84.4626,153.222 z" id="path9" style="fill:#000000;stroke:none"/>
        <path d="M 84.2893,148.923 C 121.063,147.846 150.001,117.16 148.923,80.3859 C 147.846,43.612 117.16,14.674 80.3859,15.7517 C 43.612,16.8293 14.674,47.5153 15.7517,84.2893 C 16.8298,121.063 47.5153,150.001 84.2893,148.923 z" id="path10" style="fill:#ff0000;stroke:#ffffff;stroke-width:3"/>
      </g>
      <path d="M 83.5124,133.339 C 111.679,132.514 133.845,109.01 133.019,80.843 C 132.194,52.6755 108.69,30.5105 80.5227,31.3356 C 52.3557,32.1613 30.1901,55.6652 31.0158,83.8322 C 31.8415,111.999 55.3454,134.165 83.5124,133.339 z" id="path11" style="fill:#ffffff;stroke:none"/>
      <path d="M 87.9587,54.1677 C 90.1047,60.0256 87.111,66.4807 83.8728,71.0959 C 77.9094,76.5813 68.3122,79.7541 65.9621,87.7307 C 70.448,91.3166 71.5813,96.5168 71.2536,101.823 L 109.92,56.196 C 111.772,54.2316 115.238,55.6193 117.354,56.1301 C 119.298,58.1613 121.462,59.8547 121.765,62.7873 L 120.833,67.0295 C 107.944,82.5105 95.7292,98.4299 82.9191,114.01 C 82.697,110.362 80.1589,107.177 77.4499,104.697 C 75.6931,103.412 73.5974,102.722 71.1525,102.718 C 71.4499,97.6794 69.9978,92.8962 66.1281,89.4704 C 63.8298,90.569 66.1623,92.3723 66.09,93.8132 L 70.1481,97.7688 C 68.5368,98.4021 64.988,93.1457 64.6735,91.1174 C 66.5778,87.8908 62.5651,86.5319 62.4108,83.8879 C 60.6013,73.4484 70.4104,68.3977 75.8103,61.4904 C 76.4001,59.4738 76.3571,55.8459 73.5358,55.1647 C 65.4582,53.7092 52.1198,57.5188 44.2858,58.717 C 47.8576,51.1496 62.854173,45.1452 70.568473,44.2053 C 78.629073,44.2102 85.0007,46.6784 87.9587,54.1677 z M 63.6325,46.6193 C 58.9875,48.4494 43.0886,56.883 41.4411,61.0446 C 48.2639,58.3737 65.7985,52.2985 73.738,53.3762 C 85.2692,62.7399 66.8825,68.3615 64.1843,76.2082 C 63.0852,79.5256 62.6203,83.6394 65.2092,86.3776 C 65.965,86.1008 65.6984,85.2551 65.8483,84.7287 C 72.6862,73.9079 90.1647,70.7199 87.3703,55.3693 C 83.9392,45.653 72.3737,43.8029 63.6325,46.6193 z M 110.226,57.4987 L 78.1652,95.4411 C 82.676,96.4035 87.9729,99.7707 88.7688,104.752 C 97.7849,93.09 108.793,79.7985 118.137,68.446 C 120.755,66.1149 121.547,62.3098 119.157,59.4133 C 116.835,57.5207 113.034,54.2834 110.226,57.4987 z M 69.2106,104.672 C 67.4597,105.742 65.6174,107.617 65.9406,110.371 C 66.6799,113.444 68.9011,116.231 71.6013,117.985 C 74.4719,119.034 78.1384,119.448 80.3889,117.166 C 81.8259,114.068 81.425,110.4 78.8952,107.94 C 76.2658,105.56 72.9294,103.824 69.2106,104.672 z" id="path12" sodipodi:nodetypes="ccccccccccccccccccccccccccccccccccccccccc" style="fill:#000000;stroke:none"/>
      <path d="M 128.048,120.928 L 44.5954,37.8605 L 36.7102,45.7097 L 120.163,128.777 L 128.048,120.928 z" id="path13" style="fill:#ff0000;stroke:none"/>
    </g>
  </g>
</svg>

<svg xmlns="http://www.w3.org/2000/svg" viewBox="0 0 141.73 141.73"><g transform="translate(-11.519-11.519)"><g><path d="m84.46 153.22c39.12-1.147 69.906-33.791 68.759-72.912-1.146-39.12-33.791-69.906-72.912-68.76-39.12 1.146-69.906 33.791-68.76 72.912 1.147 39.12 33.791 69.906 72.912 68.759"/><path d="m84.29 148.92c36.774-1.077 65.71-31.763 64.63-68.54-1.077-36.774-31.763-65.71-68.54-64.63-36.774 1.078-65.71 31.764-64.63 68.54 1.078 36.774 31.764 65.71 68.54 64.63z" fill="#f00" stroke="#fff" stroke-width="3"/></g><path d="m83.51 133.34c28.17-.825 50.33-24.329 49.51-52.5-.825-28.17-24.329-50.33-52.5-49.51-28.17.826-50.33 24.33-49.51 52.5.826 28.17 24.33 50.33 52.5 49.51" fill="#fff"/><path d="m87.959 54.17c2.146 5.858-.848 12.313-4.086 16.928-5.963 5.485-15.561 8.658-17.911 16.635 4.486 3.586 5.619 8.786 5.291 14.09l38.666-45.627c1.852-1.964 5.318-.577 7.434-.066 1.944 2.031 4.108 3.725 4.411 6.657l-.932 4.242c-12.889 15.481-25.1 31.4-37.914 46.981-.222-3.648-2.76-6.833-5.469-9.313-1.757-1.285-3.853-1.975-6.297-1.979.297-5.04-1.155-9.822-5.02-13.248-2.298 1.099.034 2.902-.038 4.343l4.058 3.956c-1.611.633-5.16-4.623-5.475-6.651 1.904-3.227-2.108-4.586-2.263-7.23-1.809-10.439 8-15.49 13.399-22.398.59-2.02.547-5.645-2.275-6.326-8.08-1.456-21.416 2.354-29.25 3.552 3.572-7.567 18.568-13.572 26.28-14.512 8.06.005 14.432 2.473 17.39 9.962m-24.326-7.548c-4.645 1.83-20.544 10.264-22.19 14.425 6.823-2.671 24.357-8.746 32.3-7.668 11.531 9.364-6.856 14.985-9.554 22.832-1.099 3.317-1.564 7.431 1.025 10.169.756-.277.489-1.123.639-1.649 6.838-10.821 24.316-14.01 21.522-29.359-3.431-9.716-14.997-11.566-23.738-8.75m46.593 10.879l-32.06 37.942c4.511.962 9.808 4.33 10.604 9.311 9.02-11.662 20.02-24.953 29.368-36.31 2.618-2.331 3.41-6.136 1.02-9.03-2.322-1.893-6.123-5.13-8.931-1.915m-41.02 47.17c-1.751 1.07-3.593 2.945-3.27 5.699.739 3.073 2.96 5.86 5.661 7.614 2.871 1.049 6.537 1.463 8.788-.819 1.437-3.098 1.036-6.766-1.494-9.226-2.629-2.38-5.966-4.116-9.685-3.268"/><path d="m128.05 120.93l-83.45-83.07-7.885 7.849 83.45 83.07 7.885-7.849" fill="#f00"/></g></svg>
